X: 1
T: Maurice O'Keefe's
M: 2/4
L: 1/8
R: polka
K: Ador
E|:A>B cd|e/a/a/g/ ed|eA B/A/G|A/B/A/G/ EG|
A>B cd|e/a/a/g/ ed|eA B/A/G/B/|A2 A2:|
e/a/a/g/ ed|e/a/a/g/ ed|eA B/A/G|A/B/A/G/ EG|
A>B cd|e/a/a/g/ ed|eA B/A/G/B/|A2 A2:|
